X: 35989
T: Sassafras Ass
R: reel
M: 4/4
K: Gmajor
d2 BG AGED|GABd eA A2|dBAG Bdeg|edBA GE E2:|
B2 GB Adfd|c2 GB AGED|B2 GB Adfd [1|edBA GE E2:|2 gfed e2 e2||
egge fdeB|eggf a2 a2|egfa gefd|edBA GE E2:|
Bdgb afge|Adfa gfed|1 Bdgb afge|gfed e2 e2:|2 Bdeg Adfa|gedB AG G2||

